<?xml version="1.0" encoding="UTF-8"?>
<map version="1.10" tiledversion="1.11.2" orientation="orthogonal" renderorder="right-down" width="15" height="10" tilewidth="70" tileheight="70" infinite="0" nextlayerid="7" nextobjectid="1">
 <tileset firstgid="1" source="textures.tsx"/>
 <layer id="1" name="yard" width="15" height="10">
  <data encoding="csv">
0,0,0,0,0,0,0,0,0,0,0,0,0,0,0,
0,0,0,0,0,0,0,0,0,0,0,0,0,0,0,
0,0,0,0,0,0,0,0,0,0,0,0,0,0,0,
61,61,61,61,61,61,61,61,61,61,61,61,61,61,61,
61,61,61,61,61,61,61,61,61,61,61,61,61,61,61,
61,61,61,61,61,61,61,61,61,61,61,61,61,61,61,
61,61,61,61,61,61,61,61,61,61,61,61,61,61,61,
61,61,61,61,61,61,61,61,61,61,61,61,61,61,61,
61,61,61,61,61,61,61,61,61,61,61,61,61,61,61,
61,61,61,61,61,61,61,61,61,61,61,61,61,61,61
</data>
 </layer>
 <layer id="2" name="stones" width="15" height="10">
  <data encoding="csv">
0,0,0,0,0,0,0,0,0,0,0,0,0,0,0,
0,0,0,0,0,0,0,0,0,0,0,0,0,0,0,
0,0,0,0,0,0,0,0,0,0,0,0,0,0,0,
0,0,0,0,0,0,0,0,0,0,0,0,0,0,0,
93,0,0,0,0,0,0,0,0,0,0,0,0,0,93,
93,0,0,0,0,0,0,0,0,0,0,0,0,0,93,
93,0,0,0,0,0,0,0,0,0,0,0,0,0,93,
93,0,0,0,0,0,0,0,0,0,0,0,0,0,93,
93,0,0,0,0,0,0,0,0,0,0,0,0,0,93,
93,93,93,93,93,93,93,93,93,93,93,93,93,93,93
</data>
 </layer>
 <layer id="5" name="fence" width="15" height="10">
  <data encoding="csv">
0,0,0,0,0,0,0,0,0,0,0,0,0,0,0,
0,0,0,0,0,0,0,0,0,0,0,0,0,0,0,
0,0,0,0,0,0,0,0,0,0,0,0,0,0,0,
77,77,77,77,77,77,77,77,77,77,77,77,77,77,77,
0,0,0,0,0,0,0,0,0,0,0,0,0,0,0,
0,0,0,0,0,0,0,0,0,0,0,0,0,0,0,
0,0,0,0,0,0,0,0,0,0,0,0,0,0,0,
0,0,0,0,0,0,0,0,0,0,0,0,0,0,0,
0,0,0,0,0,0,0,0,0,0,0,0,0,0,0,
0,0,0,0,0,0,0,0,0,0,0,0,0,0,0
</data>
 </layer>
 <layer id="3" name="castle" width="15" height="10">
  <data encoding="csv">
0,0,0,0,86,0,0,0,0,0,0,0,92,0,0,
15,16,16,16,16,16,16,16,16,17,18,19,19,19,20,
29,30,30,30,30,30,30,30,30,31,32,33,33,33,34,
0,0,0,0,0,0,0,0,0,0,0,0,0,0,0,
0,0,0,0,0,0,0,0,0,0,0,0,0,0,0,
0,0,0,0,0,0,0,0,0,0,0,0,0,0,0,
0,0,0,0,0,0,0,0,0,0,0,0,0,0,0,
0,0,0,0,0,0,0,0,0,0,0,0,0,0,0,
0,0,0,0,0,0,0,0,0,0,0,0,0,0,0,
0,0,0,0,0,0,0,0,0,0,0,0,0,0,0
</data>
 </layer>
 <layer id="4" name="windows" width="15" height="10">
  <data encoding="csv">
0,0,0,0,0,0,0,0,0,0,0,0,0,0,0,
0,0,40,0,0,11,0,40,0,0,0,0,91,0,0,
0,0,0,0,0,25,0,0,0,0,0,0,0,0,0,
0,0,0,0,0,0,0,0,0,0,0,0,0,0,0,
0,0,0,0,0,0,0,0,0,0,0,0,0,0,0,
0,0,0,0,0,0,0,0,0,0,0,0,0,0,0,
0,0,0,0,0,0,0,0,0,0,0,0,0,0,0,
0,0,0,0,0,0,0,0,0,0,0,0,0,0,0,
0,0,0,0,0,0,0,0,0,0,0,0,0,0,0,
0,0,0,0,0,0,0,0,0,0,0,0,0,0,0
</data>
 </layer>
 <layer id="6" name="collision" width="15" height="10">
  <data encoding="csv">
0,0,0,0,0,0,0,0,0,0,0,0,0,0,0,
0,0,0,0,0,0,0,0,0,0,0,0,0,0,0,
0,0,0,0,0,0,0,0,0,0,0,0,0,0,0,
78,78,78,78,78,78,78,78,78,78,78,78,78,78,78,
78,0,0,0,0,0,0,0,0,0,0,0,0,0,78,
78,0,0,0,0,0,0,0,0,0,0,0,0,0,78,
78,0,0,0,0,0,0,0,0,0,0,0,0,0,78,
78,0,0,0,0,0,0,0,0,0,0,0,0,0,78,
78,0,0,0,0,0,0,0,0,0,0,0,0,0,78,
78,78,78,78,78,78,78,78,78,78,78,78,78,78,78
</data>
 </layer>
</map>
